!!!!SEGMENT: pl-kk--kk-i-423--001-004_golabek-jakub--missa-1a-quoniam.krn
!!!cenid: 17xx:2554
!!!COM: Gołąbek, Jakub
!!!COM-rismID: pe30008748
!!!CDT: 1739-1789/03/30
!!!CNT: Polish
!!!OPR: Missa 1a
!!!OTL: Quoniam
!!!OMV: 004
!!!PDT:
!!!AGN: Sacred; Mass
!!!YEC: Copyright 2022 Narodowy Instytut Fryderyka Chopina (https://polishscores.org)
!!!YEM: License CC-BY-4.0 (https://creativecommons.org/licenses/by/4.0)
!!!SMS-siglum: PL-Kk
!!!SMS-shelfmark: Kk.I.423
!!!SMS-variant:
!!!SMS-altvar:
!!!SMS-shelfwork: 001-004 M
!!!NIFC-rismSourceID: 1001147334
!!!NIFC-rismChildID: 1001147336
!!!NIFC-islandoraID:
!!!URL-pdf-islandora: https://repozytorium.nifc.pl/islandora/object/pl-kk%3A10566/datastream/PDF/view
!!!URL-scan: https://polish.musicsources.pl/pl/lokalizacje/galeria/rekopisy/6034-masses/3 @EN{Scan on Polish Music Sources Website} @PL{Skany w portalu Dziedzictwo Muzyki Polskiej w otwartym dostępie}
!!!IIIF:
!!!ONB-nifc: UWAGA: C – skan 3-4, A – 7-8, T – 11-12, B – 15-16. Części Mszy: Kyrie, Christe, Et in terra, Quoniam, Sanctus (+Osanna), Benedictus, Agnus Dei.
!!!AIN: 1 alto 1 bass 1 canto 1 tenor
!!!key:
**kern	**text	**kern	**text	**kern	**text	**kern	**text
*part4	*part4	*part3	*part3	*part2	*part2	*part1	*part1
*staff4	*staff4	*staff3	*staff3	*staff2	*staff2	*staff1	*staff1
*I"Basso	*	*I"Tenore	*	*I"Alto	*	*I"Canto	*
*I'B.	*	*I'T.	*	*I'A.	*	*I'C.	*
*Ibass	*	*Itenor	*	*Ialto	*	*Icanto	*
*ICvox	*	*ICvox	*	*ICvox	*	*ICvox	*
*clefF4	*	*clefC4	*	*clefC3	*	*clefC1	*
*k[]	*	*k[]	*	*k[]	*	*k[]	*
*C:	*	*C:	*	*C:	*	*C:	*
*M2/2	*	*M2/2	*	*M2/2	*	*M2/2	*
*met(c|)	*	*met(c|)	*	*met(c|)	*	*met(c|)	*
=1	=1	=1	=1	=1	=1	=1	=1
4.c\	Quo-	4.G/	Quo-	4.en\	Quo-	4.cc\	Quo-
8G\	-ni-	8B\	-ni-	8f\	-ni-	8dd\	-ni-
4E\	-am	4c\	-am	4g\	-am	4ee\	-am
4D\	tu	4B\	tu	4g\	tu	4ff\	tu
=2	=2	=2	=2	=2	=2	=2	=2
4C/	so-	8c\L	so-	8g\L	so-	8ee\L	so-
.	.	8B\J	.	8f\	.	8dd\	.
4GG/	.	8B\L	.	8f\	.	8dd\	.
.	.	8G\J	.	8e\J	.	8cc\J	.
4C/	-lus	4G/	-lus	4e\	-lus	4cc\	-lus
4C/	tu	4c\	tu	4g\	tu	4ee\	tu
=3	=3	=3	=3	=3	=3	=3	=3
2C/	So-	2c\	so-	4g\	so-	4ee\	so-
.	.	.	.	8a\L	.	8ff\L	.
.	.	.	.	8g\J	.	8ee\J	.
4F\	.	4A\	.	4f\	.	4dd\	.
4F#X\	-lus	4A\	-lus	4e\	-lus	4cc\	-lus
=4	=4	=4	=4	=4	=4	=4	=4
4G\	San-	4G/	San-	4e\	San-	4cc\	San-
4GG/	-ctus	4G/	-ctus	4d\	-ctus	4b\	-ctus
4r	.	4r	.	4r	.	4r	.
4G\	tu	8B\L	tu	8d\L	tu	8dd\L	tu
.	.	8c\J	.	8e\J	.	8cc\J	.
=5	=5	=5	=5	=5	=5	=5	=5
4G\	so-	4d\	so-	4f\	so-	4b\	so-
4G\	-lus	4d\	-lus	4f\	-lus	4b\	-lus
4G\	Do-	8d\L	Do-	8f\L	Do-	4b\	Do-
.	.	8f\J	.	8a\J	.	.	.
4GG/	-mi-	8e\L	-mi-	8g\L	-mi-	4b\	-mi-
.	.	8d\J	.	8f\J	.	.	.
!	!	!LO:LB:g=original	!	!	!	!	!
=6	=6	=6	=6	=6	=6	=6	=6
.	.	.	.	8qqf	.	.	.
2C/	-nus	2c\	-nus	2e\	-nus	2g/	-nus
4r	.	4r	.	4r	.	4r	.
4C/	tu	4c\	tu	4e\	tu	4g/	tu
!LO:LB:g=original	!	!	!	!LO:LB:g=original	!	!LO:LB:g=original	!
=7	=7	=7	=7	=7	=7	=7	=7
*2\right	*	*	*	*	*	*	*
2A\	so-	4.B\	so-	4.d\	so-	2g/	so-
.	.	8c\	.	8e\	.	.	.
4G\	-lus	4d\	-lus	4f\	-lus	4b\	-lus
4G\	al-	4d\	al-	4f\	al-	4b\	al-
=8	=8	=8	=8	=8	=8	=8	=8
4c\	-tis-	8c\L	-tis-	8e\L	-tis-	8cc\L	-tis-
.	.	8d\J	.	8f\J	.	8b\J	.
4G\	-si-	8d\L	-si-	8f\L	-ſi-	8b\L	-si-
.	.	8e\J	.	8g\J	.	8cc\J	.
*	*	*	*	*	*	*2\right	*
2C/	-mus	2e\	-mus	2g\	-mus	2cc\	-mus
=9	=9	=9	=9	=9	=9	=9	=9
4F\	Je-	4f\	Je-	4.a\	Je-	4cc\	Je-
4F\	-su	8e\L	-su	.	.	4a\	-su
.	.	8d\J	.	16g\LL	-su	.	.
.	.	.	.	16f\JJ	.	.	.
4G\	Chri-	4c\	Chri-	4e\	Chri-	2g\	Chri-
4GG/	.	4B\	.	4d\	.	.	.
=10	=10	=10	=10	=10	=10	=10	=10
2C/	-ste	2c\	-ste	2e\	-ste	2g\	-ste
4r	.	4r	.	4r	.	4r	.
4C/	Cum	4e\	Cum	4g\	Cum	4cc\	Cum
=11	=11	=11	=11	=11	=11	=11	=11
4C/	San-	2e\	San-	2g\	San-	2cc\	San-
4E\	.	.	.	.	.	.	.
4G\	.	2d\	-cto	2f\	-cto	2b\	-cto
4GG/	-cto	.	.	.	.	.	.
=12	=12	=12	=12	=12	=12	=12	=12
4C/	Spi-	4c\	spi-	4e\	Spi-	4g\	Spi-
4C/	-ri-	4e\	-ri-	4g\	-ri-	4g\	-ri-
!	!	!LO:LB:g=original	!	!	!	!	!
4BB/	-tu	4d\	-tu	4f\	-tu	4g\	-tu
!	!	!	!	!LO:TX:a:t=V.S.	!	!	!
4C/	in	4c\	in	4e\	in	4g\	in
!	!	!	!	!LO:PB:g=original	!	!	!
=13	=13	=13	=13	=13	=13	=13	=13
4GG/	glo-	4B\	glo-	4d\	glo-	4g\	glo-
8G\	-ri-	8B\	-ri-	8d\	-ri-	8g\	-ri-
8G\	-a	8c\	-a	8e\	-a	8g\	-a
!LO:LB:g=original	!	!	!	!	!	!	!
4G\	De-	8e\L	De-	8g\L	De-	4g\	De-
.	.	8d\J	.	8f\J	.	.	.
4GG/	-i	8c\L	-i	8e\L	-i	4g\	-i
.	.	8B\J	.	8d\J	.	.	.
!	!	!	!	!	!	!LO:LB:g=original	!
=14	=14	=14	=14	=14	=14	=14	=14
4C/	Pa-	4c\	Pa-	4e\	Pa-	2.g/	Pa-
4BB/	.	4d\	.	4f\	.	.	.
4C/	.	4e\	.	4g\	.	.	.
4F\	-tris	8d\L	-tris	8f\L	-tris	4g/	-tris
.	.	8c\J	.	8e\J	.	.	.
=15	=15	=15	=15	=15	=15	=15	=15
4G\	a-	4c\	a-	4e\	a-	4g/	a-
4GG/	-men	4B\	-men	4d\	-men	4g/	-men
2r	.	2r	.	2r	.	2r	.
=16	=16	=16	=16	=16	=16	=16	=16
1G	a-	4B\	a-	4d\	a-	2g\	a-
.	.	4c\	.	4e\	.	.	.
.	.	8qqe/	.	8qqg/	.	.	.
.	.	4d\	.	4f\	.	2b\	.
.	.	8c\L	.	8e\L	.	.	.
.	.	8B\J	.	8d\J	.	.	.
=17	=17	=17	=17	=17	=17	=17	=17
4E\	.	4c\	.	4e\	.	4cc\	.
4D\	.	4d\	.	4f\	.	4b\	.
4C\	.	4e\	.	4g\	.	4g\	.
4BB/	-men	4f\	-men	4a\	-men	4dd\	-men
!	!	!LO:LB:g=original	!	!	!	!	!
=18	=18	=18	=18	=18	=18	=18	=18
4C\	a-	2e\	a-	2g\	a-	2cc\	a-
4E\	.	.	.	.	.	.	.
4G\	.	2d\	.	2f\	.	2b\	.
4GG/	.	.	.	.	.	.	.
=19	=19	=19	=19	=19	=19	=19	=19
2C/	-men	2c\	-men	2e\	-men	2g/	-men
2GG/	a-	2d\	a-	2f\	a-	2g/	a-
=20	=20	=20	=20	=20	=20	=20	=20
1C	-men	1c	-men	1e	-men	2g/	-men
.	.	.	.	.	.	2r	.
==	==	==	==	==	==	==	==
*-	*-	*-	*-	*-	*-	*-	*-
!!!system-decoration: [(s1,s2,s3,s4)]
!!!ENC: Berenika Jozajtis
!!!END: 2024-02-06
!!!ENC: Leszek Kubiak
!!!END: 2024-08-02
